flaticon/army-badges/medal-21.svg

<svg xmlns="http://www.w3.org/2000/svg" width="32" height="32" viewBox="0 0 24 24">
    <path d="M 11.640625 15.078125 L 10.921875 17.199219 L 8.800781 17.199219 C 8.640625 17.199219 8.480469 17.320312 8.441406 17.480469 C 8.359375 17.640625 8.441406 17.800781 8.558594 17.921875 L 10.359375 19.359375 L 9.640625 21.480469 C 9.558594 21.640625 9.640625 21.800781 9.761719 21.921875 C 9.878906 22.039062 10.039062 22.039062 10.199219 21.960938 L 12 20.878906 L 13.800781 21.960938 C 13.839844 22 13.921875 22 14 22 C 14.078125 22 14.160156 22 14.238281 21.917969 C 14.359375 21.800781 14.398438 21.640625 14.359375 21.480469 L 13.640625 19.359375 L 15.441406 17.921875 C 15.558594 17.800781 15.601562 17.640625 15.558594 17.480469 C 15.519531 17.320312 15.359375 17.199219 15.199219 17.199219 L 13.078125 17.199219 L 12.359375 15.078125 C 12.320312 14.921875 12.160156 14.800781 12 14.800781 C 11.839844 14.800781 11.679688 14.921875 11.640625 15.078125 Z M 12.441406 17.71875 C 12.480469 17.878906 12.640625 18 12.800781 18 L 14.078125 18 L 12.960938 18.878906 C 12.839844 19 12.800781 19.160156 12.839844 19.320312 L 13.28125 20.679688 L 12.199219 20.039062 C 12.160156 20 12.078125 20 12 20 C 11.921875 20 11.839844 20.039062 11.839844 20.039062 L 10.761719 20.679688 L 11.199219 19.320312 C 11.28125 19.160156 11.199219 19 11.078125 18.878906 L 9.960938 18 L 11.199219 18 C 11.359375 18 11.519531 17.921875 11.558594 17.761719 L 12 16.480469 Z M 12.441406 17.71875"/>
    <path d="M 16.398438 6.800781 L 16.398438 2.800781 L 16.800781 2.800781 C 17.039062 2.800781 17.199219 2.640625 17.199219 2.398438 L 17.199219 0.398438 C 17.199219 0.160156 17.039062 0 16.800781 0 L 7.199219 0 C 6.960938 0 6.800781 0.160156 6.800781 0.398438 L 6.800781 2.398438 C 6.800781 2.640625 6.960938 2.800781 7.199219 2.800781 L 7.601562 2.800781 L 7.601562 9.199219 L 7.199219 9.199219 C 6.960938 9.199219 6.800781 9.359375 6.800781 9.601562 L 6.800781 11.601562 C 6.800781 11.839844 6.960938 12 7.199219 12 L 10.617188 12 C 10.480469 12.234375 10.398438 12.507812 10.398438 12.800781 C 10.398438 13.160156 10.519531 13.488281 10.71875 13.757812 C 8.460938 14.324219 6.800781 16.363281 6.800781 18.800781 C 6.800781 21.679688 9.121094 24 12 24 C 14.878906 24 17.199219 21.679688 17.199219 18.800781 C 17.199219 16.363281 15.539062 14.324219 13.28125 13.757812 C 13.480469 13.488281 13.601562 13.160156 13.601562 12.800781 C 13.601562 12.507812 13.519531 12.234375 13.382812 12 L 16.800781 12 C 17.039062 12 17.199219 11.839844 17.199219 11.601562 L 17.199219 9.601562 C 17.199219 9.359375 17.039062 9.199219 16.800781 9.199219 L 16.398438 9.199219 Z M 15.601562 4.800781 L 8.398438 4.800781 L 8.398438 4 L 15.601562 4 Z M 8.398438 5.601562 L 15.601562 5.601562 L 15.601562 6.398438 L 8.398438 6.398438 Z M 8.398438 7.199219 L 15.601562 7.199219 L 15.601562 8 L 8.398438 8 Z M 7.601562 0.800781 L 16.398438 0.800781 L 16.398438 2 L 16 2 L 16 1.601562 C 16 1.359375 15.839844 1.199219 15.601562 1.199219 L 8.398438 1.199219 C 8.160156 1.199219 8 1.359375 8 1.601562 L 8 2 L 7.601562 2 Z M 8.800781 2.398438 L 8.800781 2 L 15.199219 2 L 15.199219 2.398438 C 15.199219 2.640625 15.359375 2.800781 15.601562 2.800781 L 15.601562 3.199219 L 8.398438 3.199219 L 8.398438 2.800781 C 8.640625 2.800781 8.800781 2.640625 8.800781 2.398438 Z M 16.398438 18.800781 C 16.398438 21.238281 14.441406 23.199219 12 23.199219 C 9.558594 23.199219 7.601562 21.199219 7.601562 18.800781 C 7.601562 16.398438 9.558594 14.398438 12 14.398438 C 14.441406 14.398438 16.398438 16.359375 16.398438 18.800781 Z M 12.800781 12.800781 C 12.800781 13.238281 12.441406 13.601562 12 13.601562 C 11.558594 13.601562 11.199219 13.238281 11.199219 12.800781 C 11.199219 12.359375 11.558594 12 12 12 C 12.441406 12 12.800781 12.359375 12.800781 12.800781 Z M 16.398438 11.199219 L 7.601562 11.199219 L 7.601562 10 L 8 10 L 8 10.398438 C 8 10.640625 8.160156 10.800781 8.398438 10.800781 L 15.601562 10.800781 C 15.839844 10.800781 16 10.640625 16 10.398438 L 16 10 L 16.398438 10 Z M 15.199219 9.601562 L 15.199219 10 L 8.800781 10 L 8.800781 9.601562 C 8.800781 9.359375 8.640625 9.199219 8.398438 9.199219 L 8.398438 8.800781 L 15.601562 8.800781 L 15.601562 9.199219 C 15.359375 9.199219 15.199219 9.359375 15.199219 9.601562 Z M 15.199219 9.601562"/>
</svg>

<svg xmlns="http://www.w3.org/2000/svg" width="32" height="32" viewBox="0 0 24 24">
    <path d="M11.64 15.078l-.718 2.121H8.8c-.16 0-.32.121-.36.281-.082.16 0 .32.118.442l1.8 1.437-.718 2.121c-.082.16 0 .32.12.442.118.117.278.117.438.039L12 20.879l1.8 1.082c.04.039.122.039.2.039.078 0 .16 0 .238-.082a.445.445 0 0 0 .121-.438l-.718-2.12 1.8-1.438c.118-.121.16-.281.118-.442a.383.383 0 0 0-.36-.28h-2.12l-.72-2.122a.385.385 0 0 0-.359-.277c-.16 0-.32.12-.36.277zm.801 2.64c.04.16.2.282.36.282h1.277l-1.117.879a.455.455 0 0 0-.121.441l.441 1.36-1.082-.64C12.16 20 12.08 20 12 20c-.078 0-.16.04-.16.04l-1.078.64.437-1.36c.082-.16 0-.32-.12-.441L9.96 18h1.238c.16 0 .32-.078.36-.238L12 16.48zm0 0"/>
    <path d="M16.398 6.8v-4h.403c.238 0 .398-.16.398-.402v-2C17.2.16 17.04 0 16.801 0H7.199c-.238 0-.398.16-.398.398v2c0 .243.16.403.398.403h.403v6.398h-.403c-.238 0-.398.16-.398.403v2c0 .238.16.398.398.398h3.418a1.586 1.586 0 0 0 .102 1.758A5.187 5.187 0 0 0 6.8 18.8 5.19 5.19 0 0 0 12 24a5.19 5.19 0 0 0 5.2-5.2 5.187 5.187 0 0 0-3.919-5.042A1.586 1.586 0 0 0 13.383 12H16.8c.238 0 .398-.16.398-.398v-2c0-.243-.16-.403-.398-.403h-.403zm-.796-2H8.398V4h7.204zm-7.204.802h7.204v.796H8.398zm0 1.597h7.204V8H8.398zM7.602.801h8.796V2H16v-.398c0-.243-.16-.403-.398-.403H8.398C8.16 1.2 8 1.36 8 1.602V2h-.398zM8.8 2.398V2h6.398v.398c0 .243.16.403.403.403v.398H8.398v-.398c.243 0 .403-.16.403-.403zm7.597 16.403A4.385 4.385 0 0 1 12 23.199c-2.441 0-4.398-2-4.398-4.398 0-2.403 1.957-4.403 4.398-4.403a4.386 4.386 0 0 1 4.398 4.403zm-3.597-6c0 .437-.36.8-.801.8a.804.804 0 0 1-.8-.8.802.802 0 0 1 1.6 0zm3.597-1.602H7.602V10H8v.398c0 .243.16.403.398.403h7.204c.238 0 .398-.16.398-.403V10h.398zM15.2 9.602V10H8.801v-.398c0-.243-.16-.403-.403-.403v-.398h7.204v.398c-.243 0-.403.16-.403.403zm0 0"/>
</svg>
